X:1
T:[ID 1-21]
T:[ID 1-21]
T:Bezeichnung standardisiert: Menuett Men\"uet
T:Urheber unbekannt Datum in der hier transkribierten schriftlichen Quelle: vermutlich vor 1767
C:Urheber unbekannt
C:Datum in der hier transkribierten schriftlichen Quelle: vermutlich vor 1767
L:1/8
M:3/4
K:D
V:1 treble 
V:1
 FG A2 d2 | AG F2 G2 | AGFE D2 | FAdAGF | GBeGFE | FAdAGF | GBeGFE | D2 d2 c2 | d6 :: fe d2 f2 | %10
 ed c2 d2 | B2 g2 f2 | edcB A2 | dfadcB | dfacBA | BfgBAG | AefAGF | GBeGFE | FAdFED | A2 d2 c2 | %20
 d6 :| %21

